taccsite_cms/static/site_cms/img/org_logos/facebook.svg

<?xml version="1.0" encoding="UTF-8" standalone="no"?>
<!DOCTYPE svg PUBLIC "-//W3C//DTD SVG 1.1//EN" "http://www.w3.org/Graphics/SVG/1.1/DTD/svg11.dtd">
<svg id="facebook-icon" viewBox="0 0 36 36" version="1.1" xmlns="http://www.w3.org/2000/svg" xmlns:xlink="http://www.w3.org/1999/xlink" xml:space="preserve">
  <path d="M20.181 35.87C29.094 34.791 36 27.202 36 18c0-9.941-8.059-18-18-18S0 8.059 0 18c0 8.442 5.811 15.526 13.652 17.471L14 34h5.5l.681 1.87Z" mask="url(#facebook-icon-text)"></path>
  <mask id="facebook-icon-text">
    <rect fill="white" x="0" y="0" width="100" height="100" />
    <path fill="black" d="M13.651 35.471v-11.97H9.936V18h3.715v-2.37c0-6.127 2.772-8.964 8.784-8.964 1.138 0 3.103.223 3.91.446v4.983c-.425-.043-1.167-.065-2.081-.065-2.952 0-4.09 1.116-4.09 4.025V18h5.883l-1.008 5.5h-4.867v12.37a18.183 18.183 0 0 1-6.53-.399Z"></path>
  </mask>
</svg>

<?xml version="1.0" encoding="UTF-8" standalone="no"?>
<!DOCTYPE svg PUBLIC "-//W3C//DTD SVG 1.1//EN" "http://www.w3.org/Graphics/SVG/1.1/DTD/svg11.dtd">
<svg id="facebook-icon" viewBox="0 0 36 36" version="1.1" xmlns="http://www.w3.org/2000/svg" xmlns:xlink="http://www.w3.org/1999/xlink" xml:space="preserve">
    <path id="path1" d="M18,0C8.059,0 0,8.059 0,18C0,26.441 5.81,33.525 13.65,35.471L13.65,23.502L9.936,23.502L9.936,18L13.65,18L13.65,15.631C13.65,9.504 16.424,6.666 22.436,6.666C23.574,6.666 25.539,6.888 26.346,7.111L26.346,12.096C25.921,12.053 25.178,12.029 24.264,12.029C21.312,12.029 20.174,13.146 20.174,16.055L20.174,18L26.057,18L25.049,23.5L20.182,23.5L20.182,35.869C29.095,34.79 36,27.202 36,18C36,8.059 27.941,0 18,0Z" />
</svg>
